WPMap/assets/css/svg/icon_garrison.svg

<svg width="38" height="59" viewBox="0 0 38 59" fill="none" xmlns="http://www.w3.org/2000/svg">
<path d="M31.8463 0.129673L28.1631 0V3.54433H24.4799V0H20.8416V3.54433L17.2033 3.58755L17.1584 0H13.4752V3.54433L9.8818 3.58755L9.79196 0H6.10875V7.04543H31.8463V0.129673ZM29.3759 13.0103L30.5887 9.46594H7.32151L8.53428 13.0103H29.3759ZM0 55.4557V59H38V55.4557H0ZM14.6879 41.2784H23.2671V53.0784H36.7423C36.7423 53.0784 36.4279 47.6755 32.7447 37.0425C29.9598 29.0029 29.8251 23.1245 29.8251 23.1245L29.4208 15.3443H8.5792L7.99527 23.1245C7.99527 23.1245 7.86052 28.9597 5.07565 37.0425C1.39243 47.6755 1.07801 53.2945 1.07801 53.2945L14.6879 53.0784V41.2784ZM15.9007 21.2227H22.0095V29.4784H15.9007V21.2227Z" fill="black"/>
</svg>

<svg xmlns="http://www.w3.org/2000/svg" width="38" height="59" fill="none"><path fill="#000" d="M31.846.13 28.163 0v3.544H24.48V0h-3.638v3.544l-3.639.044L17.158 0h-3.683v3.544l-3.593.044L9.792 0H6.109v7.045h25.737V.13Zm-2.47 12.88 1.213-3.544H7.322l1.212 3.544h20.842ZM0 55.456V59h38v-3.544H0Zm14.688-14.178h8.58v11.8h13.474s-.314-5.403-3.997-16.036c-2.785-8.04-2.92-13.918-2.92-13.918l-.404-7.78H8.579l-.584 7.78s-.134 5.836-2.92 13.918C1.393 47.675 1.079 53.294 1.079 53.294l13.61-.216v-11.8ZM15.9 21.223h6.108v8.255h-6.108v-8.255Z"/></svg>
